X:0971
M:C
L:1/8
Q:1/4=100
K:D
   D2         EF     (G2         F2)               | dB   AF     (F2    E2) |
  (F>G)``````(F>A)   (Bd)```````(FA)               |(d<f)`af      d2    zA  |\
  (B3/c//d//) d2     (e/d/c/d/) (c/B/A/G/)         | F2   E2      D2       :|
z2|B3         (c/d/) (ec)```````(dB)               | A2  (df)    (e>c) (A>F)|\
   D2         zD     F<A`````````A<d               | d2  (cB)    (BA)``(GF) |
  (F2         E2)    z2          A2                | A2  (F>G)   (A3B/c/)   |\
   d2        (cB)   (B2          A2)               | D2   EF     (G2    F2) |
   df`````````ge     c2          A2                | Be```Ac      d2    cB  |\
   AF`````````AF    (AB/c/)    (Hd2{e}) ({fedcBAG})| F2   E2      D2       |]

